!!!SOCIAL_FUNCTION:	woman's dance songs
!!!PDT:	1909
!!!OTL: No_184.krn
!!!REG: Great_Lakes
!!!LANG: Non-Tone
!!!LING_GROUP: Algonquin
**kern	**kern
*staff2	*staff1
=1-	=1-
*clefF4	*clefF4
*k[f#c#]	*k[f#c#]
*M2/4	*M2/4
8r	4d\
8GG/	.
12GG^/	8d\L
12r	.
.	8c#\J
12GG/	.
=2	=2
12GG^/	4.B\
12r	.
12GG/	.
12GG^/	.
12r	.
.	8F#\
12GG/	.
=3	=3
2r	4B\
.	8B\L
.	8G\J
=4	=4
2r	4F#\
.	8D\L
.	8D\J
=5	=5
2r	4D\
.	8D\L
.	8G\J
=6	=6
2r	4G\
.	8B\L
.	8G\J
=7	=7
2r	4F#\
.	8D\L
.	8D\J
=8	=8
2r	4D\
.	8B\L
.	8G\J
=9	=9
2r	4B\
.	8B\L
.	8G\J
=10	=10
2r	4F#\
.	4D\
=11	=11
2r	4G\
.	8B\L
.	8G\J
=12	=12
2r	4F#\
.	8D\L
.	8D\J
=13	=13
2r	2D\
==	==
*-	*-
